public/library/bullish-exchange-text-light.svg

<svg width="246" height="84" viewBox="0 0 246 84" fill="none" xmlns="http://www.w3.org/2000/svg">
<rect y="0.729919" width="246" height="83.2701" fill="white"/>
<rect x="0.5" y="1.22992" width="245" height="82.2701" stroke="black" stroke-opacity="0.15"/>
<path d="M51.0968 36.4567C46.8983 33.0832 42.4757 31.5184 36.8506 30.7259C31.7961 30.0146 28.739 29.0188 24.296 25.9502L21.6261 29.9333C25.6004 32.88 29.3301 34.3432 34.3641 35.217C37.9308 35.8267 40.7229 35.8673 44.4322 37.8386C43.6985 38.7937 43.026 40.1756 42.6387 41.1104C40.7841 40.013 38.0531 39.1798 34.4049 39.1392V43.8742C36.178 43.9555 37.7677 44.1587 39.9077 45.0935C42.5165 46.2316 44.3507 47.9183 44.3507 47.9183C46.4296 40.6227 51.0968 36.4567 51.0968 36.4567ZM73.0266 35.3187C78.4479 34.5464 82.3406 32.88 86.3148 29.9333L83.6449 25.9502C79.2019 29.0188 76.1448 30.0146 71.0904 30.7259C65.4653 31.5184 60.8388 33.2052 56.6403 36.5786C50.1185 41.7201 47.0613 49.2595 47.0613 56.8599V59.2376H60.4108V56.8599C60.3497 49.8692 65.6487 46.4754 65.6487 46.4754C67.5441 45.1951 70.377 43.7726 73.5564 43.8945V39.1595C69.9898 39.1189 66.3009 40.2569 62.8157 42.6549C58.9841 45.5 56.5792 49.7676 55.9474 54.4823H52.0139C54.1743 37.2899 70.0102 35.7454 73.0266 35.3187ZM115.745 41.7607C118.537 40.1553 119.943 37.8183 119.943 34.77C119.943 32.4532 118.965 30.3398 117.192 28.8563C115.317 27.2915 112.688 26.4583 109.59 26.4583H97.3001V59.4408H110.344C113.809 59.4408 116.723 58.5467 118.741 56.8193C120.758 55.1123 121.839 52.7143 121.839 49.8489C121.839 45.5203 118.7 42.6346 115.745 41.7607ZM101.906 30.5023H109.997C113.625 30.5023 115.561 32.2297 115.561 35.4812C115.561 38.7327 113.646 40.4601 109.997 40.4601H101.906V30.5023ZM111.567 55.1935H101.906V44.4839H111.567C115.296 44.4839 117.457 46.4348 117.457 49.8285C117.457 53.2426 115.296 55.1935 111.567 55.1935ZM142.281 51.6575C140.304 54.5432 137.797 56.1284 135.27 56.1284C132.212 56.1284 130.521 54.4213 130.521 51.3324V35.8267H126.261V52.0843C126.261 54.462 126.954 56.4332 128.279 57.7744C129.624 59.1563 131.642 59.8879 134.087 59.8879C137.654 59.8879 140.711 58.0589 142.281 56.4332V59.4408H146.52V35.847H142.281V51.6575ZM152.165 59.4408H156.323V25.0357H152.165V59.4408ZM191.133 45.4187C187.159 44.3619 184.999 43.4474 184.999 41.6591C184.999 40.3991 186.242 39.0376 188.953 39.0376C191.623 39.0376 193.335 40.4195 193.661 42.8378V42.8784H197.859V42.8175C197.452 38.0621 194.191 35.339 188.953 35.339C186.711 35.339 184.652 36.0096 183.165 37.2289C181.717 38.4076 180.923 40.013 180.923 41.7201C180.923 45.2764 183.001 47.3086 187.893 48.5279C192.458 49.6863 194.639 50.6211 194.639 52.7143C194.639 54.2994 193.172 56.0064 189.931 56.0064C186.609 56.0064 184.795 54.7668 184.102 52.003V51.9624H180.087V52.0233C180.556 56.9412 184.204 59.8676 189.849 59.8676C192.458 59.8676 194.7 59.1157 196.351 57.6728C197.941 56.2909 198.797 54.34 198.797 52.2062C198.797 48.8531 196.575 46.8819 191.133 45.4187ZM216.283 35.3796C212.758 35.3796 209.497 37.0867 207.805 38.8343V25.0561H203.566V59.4408H207.805V43.3458C209.619 40.8056 212.493 39.1595 215.101 39.1595C218.26 39.1595 220.135 40.9478 220.135 43.9555V59.4408H224.375V43.1833C224.375 38.367 221.277 35.3796 216.283 35.3796ZM174.014 26.6412C172.424 26.6412 171.14 27.9215 171.14 29.5066C171.14 31.0917 172.424 32.372 174.014 32.372C175.603 32.372 176.887 31.0917 176.887 29.5066C176.908 27.9215 175.603 26.6412 174.014 26.6412ZM161.968 59.4408H166.126V25.0357H161.968V59.4408ZM171.894 59.4408H176.133V35.847H171.894V59.4408Z" fill="black"/>
</svg>

<svg xmlns="http://www.w3.org/2000/svg" width="246" height="84" fill="none" viewBox="0 0 246 84"><path fill="#fff" d="M0 .73h246V84H0z"/><path stroke="#000" stroke-opacity=".15" d="M.5 1.23h245V83.5H.5z"/><path fill="#000" d="M51.097 36.457c-4.199-3.374-8.621-4.939-14.246-5.731-5.055-.711-8.112-1.707-12.555-4.776l-2.67 3.983c3.974 2.947 7.704 4.41 12.738 5.284 3.567.61 6.359.65 10.068 2.622-.733.955-1.406 2.337-1.793 3.271-1.855-1.097-4.586-1.93-8.234-1.97v4.734c1.773.081 3.363.285 5.503 1.22 2.608 1.138 4.443 2.824 4.443 2.824 2.079-7.295 6.746-11.461 6.746-11.461m21.93-1.138c5.42-.773 9.314-2.439 13.288-5.386l-2.67-3.983c-4.443 3.069-7.5 4.065-12.555 4.776-5.625.792-10.251 2.48-14.45 5.853-6.522 5.141-9.579 12.68-9.579 20.28v2.379h13.35V56.86c-.061-6.99 5.238-10.385 5.238-10.385 1.895-1.28 4.728-2.702 7.907-2.58v-4.736c-3.566-.04-7.255 1.098-10.74 3.496-3.832 2.845-6.237 7.113-6.869 11.827h-3.933C54.174 37.29 70.01 35.745 73.027 35.32m42.718 6.442c2.792-1.606 4.198-3.943 4.198-6.991 0-2.317-.978-4.43-2.751-5.914-1.875-1.565-4.504-2.398-7.602-2.398H97.3v32.983h13.044c3.465 0 6.379-.894 8.397-2.622 2.017-1.707 3.098-4.105 3.098-6.97 0-4.329-3.139-7.214-6.094-8.088m-13.839-11.259h8.091c3.628 0 5.564 1.728 5.564 4.98 0 3.25-1.915 4.978-5.564 4.978h-8.091zm9.661 24.692h-9.661v-10.71h9.661c3.729 0 5.89 1.95 5.89 5.344 0 3.415-2.161 5.365-5.89 5.365m30.714-3.537c-1.977 2.886-4.484 4.471-7.011 4.471-3.058 0-4.749-1.707-4.749-4.796V35.827h-4.26v16.257c0 2.378.693 4.35 2.018 5.69 1.345 1.382 3.363 2.114 5.808 2.114 3.567 0 6.624-1.83 8.194-3.455v3.008h4.239V35.847h-4.239zm9.884 7.784h4.158V25.036h-4.158zm38.968-14.022c-3.974-1.057-6.134-1.972-6.134-3.76 0-1.26 1.243-2.621 3.954-2.621 2.67 0 4.382 1.382 4.708 3.8v.04h4.198v-.06c-.407-4.756-3.668-7.479-8.906-7.479-2.242 0-4.301.67-5.788 1.89-1.448 1.179-2.242 2.784-2.242 4.491 0 3.556 2.078 5.589 6.97 6.808 4.565 1.158 6.746 2.093 6.746 4.186 0 1.585-1.467 3.292-4.708 3.292-3.322 0-5.136-1.24-5.829-4.003v-.04h-4.015v.06c.469 4.918 4.117 7.845 9.762 7.845 2.609 0 4.851-.752 6.502-2.195 1.59-1.382 2.446-3.333 2.446-5.467 0-3.353-2.222-5.324-7.664-6.787m25.15-10.04c-3.525 0-6.786 1.708-8.478 3.455V25.056h-4.239v34.385h4.239V43.346c1.814-2.54 4.688-4.186 7.296-4.186 3.159 0 5.034 1.788 5.034 4.796V59.44h4.24V43.183c0-4.816-3.098-7.803-8.092-7.803m-42.269-8.738a2.866 2.866 0 1 0 0 5.731 2.866 2.866 0 0 0 2.873-2.865c.021-1.585-1.284-2.866-2.873-2.866m-12.046 32.8h4.158V25.036h-4.158zm9.926 0h4.239V35.847h-4.239z"/></svg>
